X:1
T:Title
%%score { 1 | 2 }
L:1/8
M:4/4
K:Ab
V:1 treble nm="Grand Piano"
V:2 bass 
V:1
 z4 z2[Q:1/4=100] [A,C][B,D] | [CE]2 [Ec][=D_c] [Fd]2 [E=c]2 | B2 F4 =EF | G2 BG F2 =E2 | %4
[M:3/4] [CE]6 |[M:1/4] [A,C][B,D] |[M:4/4] [CE]2 [Ec][=D_c] [Fd]2 [E=c]2 | B2 F4 =EF | %8
 G2 FE [Fd]2 [Ec]2 |[M:3/4] [CA]6 |[M:1/4] EF |[M:4/4] G2 FE [Fd]2 [Fd]2 | [Ec]2 [CA]4 EF | %13
 G2 FE [Fd]2 [=Ed]2 |[M:3/4] c6 |[M:1/4] cd |[M:4/4] e2 dc d2 c2 | [FB]2 F4 =EF | %18
 G2 FE [Fd]2 [Ec]2 |[M:3/4] [CA]6 |] %20
V:2
 z4 z2 [A,,E,][A,,E,] | [A,,A,]2 [A,,A,][A,,A,] [A,,A,]2 [A,,A,]2 | %2
 [D,F,D]2 [D,A,D]4 [D,G,D][D,A,D] | [E,D]2 [E,G,D][E,B,D] [E,G,D]2 [E,G,D]2 |[M:3/4] [A,,A,]6 | %5
[M:1/4] [A,,E,][A,,E,] |[M:4/4] [A,,A,]2 [A,,A,][A,,A,] [A,,A,]2 [A,,A,]2 | %7
 [D,F,D]2 [D,A,D]4 [D,G,D][D,A,D] | [E,D]2 [E,A,D][E,G,D] [E,G,]2 [E,G,]2 |[M:3/4] [A,,A,]6 | %10
[M:1/4] [E,G,][E,A,=D] |[M:4/4] [E,B,D]2 [E,A,D][E,G,D] [E,G,]2 [E,G,]2 | %12
 [A,,A,]2 [A,,A,]4 [E,G,][E,A,=D] | [E,B,D]2 [E,A,D][E,G,D] [E,G,]2 [E,G,]2 | %14
[M:3/4][K:treble] [A,E]6 |[M:1/4] [A,EA][A,DA] |[M:4/4] [A,CA]2 [A,FA][A,EA] [A,FA]2 [A,EA]2 | %17
 [D,D]2 [D,A,D]4 [D,G,D][D,A,D] | [E,D]2 [E,A,D][E,G,D] [E,G,]2 [E,G,]2 |[M:3/4] [A,,A,]6 |] %20

